X: 124
T: Mr Edmonstone of Newton's Strathspey
%C:
R: strathspey
B: William Shepherd "1st Collection" 1793 p.12 #4
F: http://imslp.org/wiki/File:PMLP73094-Shepherd_Collections_HMT.pdf
C: William Shepherd (17??-1812)
Z: 2012 John Chambers <jc:trillian.mit.edu>
M: C|
L: 1/8
K: Am
B |:!segno!\
A<AeTc A<ac<a | A<Ae>c B>gB>G |\
A<Aec A<ac<a | g<be<g d<gBG :|
|:\
A<ac<a e>Ae>Tc | A<ac<a B>g {e}dc/B/ |\
A<ac<a c<ae>Tc | g<be<g d<gd>!segno!G :|
